X:1
T:Vaillance Polka Militare
M:2/4
L:1/8
K:G
D|BBBB|dc c/B/c|ffee|ed d/^c/d|
BBBB|dc c/B/c|ffed|g/d/B/d/ g2||
aA/A/ Ad/f/|aA/A/ Ad/f/|aA/A/ AA|d/A/d/f e/A/^c/e/|
aA/A/ Ad/f/|aA/A/ Ad/f/|ad/f/ e/A/^c/e/|dd/d/ ^c/c/=c/c/||
K:C
c2 B>A | G2E2| A2 G>F|E2C2| d/e/d/e/ d/g/g/g/|
c/d/c/d/ c/g/g/g/|A/B/A/B/ A/d/d/d/ |1 G/A/G/A/ G/d/d/d/ :|2 c/G/E/G/ c2 ||
B/B/B e/e/e| cA d/d/d| BG A/A/A| A/A/A d/d/d | B/B/B e/e/e |
cA d/d/d|BG A/A/A | d/d/d d/A/d/f/| dd/d/ d/A/d/f/|
dd/d/ d/A/d/f/|d/A/d/f d/A/d/f/ | d/A/d/f/ d/A/d/f/ | dddd|dd^c=c ||

